X: 20042
T: GIN A BODY MEET A BODY
Q: "Slow"
%R: strathspey
B: "Edinburgh Repository of Music" v.2 p.114 #2
F: http://digital.nls.uk/special-collections-of-printed-music/pageturner.cfm?id=87776133
Z: 2015 John Chambers <jc:trillian.mit.edu>
M: C
L: 1/8
K: D
[|\
A<A Af e>def | A<A B>A d4 |\
A<A af e>d ef | A<A TB>A d4 |]
a>f d>f e>def | af (de)(fa) (Hb3{c'd'}b) |\
a>f g>e fd e>f | A<A TB>A d4 |]
